src/icons/edit.svg

<?xml version="1.0" encoding="UTF-8"?>
<svg width="512px" height="512px" viewBox="0 0 512 512" version="1.1" xmlns="http://www.w3.org/2000/svg" xmlns:xlink="http://www.w3.org/1999/xlink">
    <!-- Generator: Sketch 62 (91390) - https://sketch.com -->
    <title>edit</title>
    <desc>Created with Sketch.</desc>
    <g id="edit" stroke="none" stroke-width="1" fill="none" fill-rule="evenodd">
        <path d="M189.6,380.615915 L124.9,315.915915 L303.7,137.115915 L368.4,201.815915 L189.6,380.615915 Z M410.1,129.815915 L375.7,95.4159146 C367.3,87.0159146 353.2,87.6159146 344.1,96.7159146 L311.8,129.015915 L376.5,193.715915 L408.8,161.415915 C417.9,152.315915 418.5,138.215915 410.1,129.815915 Z M118.9,326.115915 L96,409.515915 L179.4,386.615915 L118.9,326.115915 Z" id="Shape" fill="#000000" fill-rule="nonzero"></path>
    </g>
</svg>

<svg xmlns="http://www.w3.org/2000/svg" width="512" height="512" viewBox="0 0 512 512">
    <path d="M189.6 380.616l-64.7-64.7 178.8-178.8 64.7 64.7-178.8 178.8zm220.5-250.8l-34.4-34.4c-8.4-8.4-22.5-7.8-31.6 1.3l-32.3 32.3 64.7 64.7 32.3-32.3c9.1-9.1 9.7-23.2 1.3-31.6zm-291.2 196.3l-22.9 83.4 83.4-22.9-60.5-60.5z"/>
</svg>
